!!!!SEGMENT: pl-kk--kk-i-6--012_anonim--gaude-maria-virgo.krn
!!!cenid: 16xx:967
!!!COM: Anonim
!!!COM-rismID:
!!!CDT:
!!!CNT:
!!!OTL: Gaude Maria virgo
!!!PDT:
!!!AGN: Sacred
!!!SMS-siglum: PL-Kk
!!!SMS-shelfmark: Kk.I.6
!!!SMS-shelfwork: 012 W
!!!SMS-variant:
!!!SMS-altvar:
!!!NIFC-rismSourceID: 1001135675
!!!NIFC-islandoraID: pl-kk:1634
!!!URL-pdf-islandora: https://repozytorium.nifc.pl/islandora/object/pl-kk%3A1634/datastream/PDF/view
!!!URL-scan: https://polish.musicsources.pl/pl/lokalizacje/galeria/rekopisy/6133 @EN{Scan on Polish Music Herritage in Open Access Website} @PL{Skany w portalu Dziedzictwo Muzyki Polskiej w otwartym dostępie}
!!!ONB-nifc: UWAGA: C (skan 0009-0010, s. 15-17), T (skan 0109-0111, s. 23-27), B (skan 0220-0223, s. 21-26) Następny utwór: Sanctus
!!!AIN: 1 empty 1 tenor 1 vox
!!!key:
**kern	**text	**kern	**text	**kern	**text
*part3	*part3	*part2	*part2	*part1	*part1
*staff3	*staff3	*staff2	*staff2	*staff1	*staff1
*Iempty	*	*Itenor	*	*Ivox	*
*I"Baſsus.	*	*I"Tenor.	*	*I"Cantus.	*
*I'B	*	*I'T	*	*I'S	*
*clefF4	*	*clefC4	*	*clefC4	*
*k[b-]	*	*k[b-]	*	*k[b-]	*
*F:	*	*F:	*	*F:	*
*M2/1	*	*M2/1	*	*M2/1	*
*met(C|)	*	*met(C|)	*	*met(C|)	*
=1-	=1-	=1-	=1-	=1-	=1-
*	*	*2\right	*	*	*
!	!	!LO:TX:a:t=Tractus \nt(em)p(or)e Quadr(a)g(esimae)	!	!	!
!	!	!LO:TX:t=P:problem= napis "Tractus t(em)p(or)e Quadr(a)g(esimae)" na pięciolinii przed kluczem	!	!	!
!LO:TX:t=P:problem=Inicjał "G" na początku pięciolinii, przed kluczem	!	!LO:TX:t=P:problem=Inicjał "G" na początku pięciolinii, przed kluczem	!	!LO:TX:t=P:problem=Inicjał "G" na początku pięciolinii, przed kluczem	!
!	!	!LO:TX:t=P:problem=2\middle or right&colon; global	!	!LO:TX:t=P:problem=oddech/cezura na różnej wysokości	!
1rBB	.	2.G/	GAu-	1G	GAu-
!	!	!LO:TX:t=P:problem=4/middle&colon; global	!	!	!
.	.	4A/	.	.	.
*2\right	*	*	*	*lig	*
!LO:TX:t=P:problem=2\middle or right&colon; global	!	!	!	!	!
2.GG/	GAu-	4B-\	.	1G	-de
.	.	4c\	.	.	.
.	.	2d\	.	.	.
!LO:TX:t=P:problem=4/middle or right&colon; global	!	!	!	!	!
4AA/	.	.	.	.	.
=2-	=2-	=2-	=2-	=2-	=2-
4BB-/	.	2D/	-de	1F	.
4C/	.	.	.	.	.
2.D/	.	4D/	gau-	.	.
.	.	4E/	.	.	.
*	*	*	*	*Xlig	*
*	*	*	*	*lig	*
.	.	4F/	.	1D	.
4E\	.	4G/	.	.	.
2F\	.	2.A/	.	.	.
=3-	=3-	=3-	=3-	=3-	=3-
2F\	-de	.	.	1F	.
*	*	*custos:c	*	*	*
.	.	4B-\	.	.	.
!	!	!LO:LB:g=original	!	!	!
4FF/	gau-	4c\	.	.	.
4GG/	.	4B-\	.	.	.
*	*	*	*	*Xlig	*
*	*	*	*	*lig	*
4AA/	.	4A/	.	1C	.
4BB-/	.	4G/	.	.	.
4C/	.	2A/	.	.	.
4AA/	.	.	.	.	.
=4-	=4-	=4-	=4-	=4-	=4-
2BB-/	.	1F	-de	1D	.
*custos:C	*	*	*	*	*
2D/	.	.	.	.	.
!LO:PB:g=original	!	!	!	!	!
*	*	*	*	*Xlig	*
*	*	*	*	*lig	*
1C	.	4G/	gau-	1E	.
.	.	4F/	.	.	.
.	.	4G/	.	.	.
.	.	4A/	.	.	.
=5-	=5-	=5-	=5-	=5-	=5-
2BB-/	.	2B-\	.	1F	.
2AA/	.	2c\	.	.	.
*	*	*	*	*Xlig	*
*	*	*	*	*lig	*
2GG/	.	2B-\	.	1G	.
2C/	-de	2.c\	.	.	.
=6-	=6-	=6-	=6-	=6-	=6-
4FF/	gau-	.	.	1A	.
4GG/	.	4B-\	.	.	.
4AA/	.	2.A/	.	.	.
4FF/	.	.	.	.	.
*	*	*	*	*Xlig	*
*	*	*	*	*lig	*
4GG/	.	.	.	1B-	.
4AA/	.	4G/	.	.	.
4BB-/	.	1G/	.	.	.
4C/	.	.	.	.	.
=7-	=7-	=7-	=7-	=7-	=7-
1D	.	.	.	1A	.
.	.	2F/	.	.	.
*	*	*	*	*Xlig	*
2GG/	-de	2G/	-de	1G,	.
2C/	gau-	2E/	gau-	.	.
=8-	=8-	=8-	=8-	=8-	=8-
*	*	*custos:C	*	*custos:G	*
!LO:TX:t=P:problem=# below	!	!	!	!	!
!LO:N:acc=#	!	!	!	!	!
2BBn/	de	2D/	-de	1G	Ma-
!	!	!LO:LB:g=original	!	!	!
!LO:TX:t=P:problem=za nutą plamka przypominająca kropkę	!	!	!	!	!
2C/	Ma-	2C/	gau-	.	.
!	!	!	!	!LO:LB:g=original	!
*	*	*	*	*lig	*
2GG/	-ri-	2D/	-de	1G	-ri-
2C/	-a	2E/	Ma-	.	.
=9-	=9-	=9-	=9-	=9-	=9-
4FF/	Vir-	2F/	-ri-	1A	.
4GG/	.	.	.	.	.
4AA/	.	2c\	-a	.	.
*custos:C	*	*	*	*	*
4BB-y/	.	.	.	.	.
!LO:LB:g=original	!	!	!	!	!
*lig	*	*	*ij	*Xlig	*
1C	.	2.c\	gau-	1G	.
.	.	4B-\	.	.	.
=10-	=10-	=10-	=10-	=10-	=10-
*	*	*	*	*lig	*
1D	.	2A/	-de	1F	-a
.	.	2.B-\	Ma-	.	.
*Xlig	*	*	*	*	*
2E-X\	-go	.	.	1G,	.
.	.	4A/	-ri-	.	.
2E-\	Ma-	1G/	-a	.	.
*	*	*	*Xij	*Xlig	*
=11-	=11-	=11-	=11-	=11-	=11-
*	*	*	*	*lig	*
2.D/	-ri-	.	.	1A	Vir-
.	.	1F	Vir-	.	.
4C/	.	.	.	.	.
!LO:N:acc=#	!	!	!	!	!
2BBn/	.	.	.	1G	.
2C/	-a	2E/	.	.	.
*	*	*	*	*Xlig	*
=12-	=12-	=12-	=12-	=12-	=12-
*	*	*	*	*lig	*
2AA/	Vir-	2F/	-go	1A	.
2FF/	-go	2.c\	Vir-	.	.
1C	Ma-	.	.	1G	.
.	.	4G/	.	.	.
.	.	2c\	.	.	.
*	*	*	*	*Xlig	*
=13-	=13-	=13-	=13-	=13-	=13-
*	*	*custos:c	*	*	*
2D/	-ri-	1A	-go	1F	.
2.F\	.	.	.	.	.
!	!	!LO:LB:g=original	!	!	!
*	*	*	*	*lig	*
.	.	2r	.	1A	-go
!LO:TX:t=P:problem=8/middle&colon; global	!	!	!	!	!
8Eny\L	.	.	.	.	.
8D\J	.	.	.	.	.
4C/	.	2.c\	Vir-	.	.
4D/	.	.	.	.	.
=14-	=14-	=14-	=14-	=14-	=14-
*lig	*	*	*	*	*
1E-X	.	.	.	1G	.
!	!	!LO:TX:t=P:problem=8\middle&colon; global	!	!	!
.	.	8B-\L	.	.	.
.	.	8A\J	.	.	.
.	.	2.G/	.	.	.
*col	*	*	*	*Xlig	*
*	*	*	*	*lig	*
2.D\	.	.	.	1A	.
.	.	8F/L	.	.	.
.	.	8E/J	.	.	.
.	.	1F/	.	.	.
*Xlig	*	*	*	*	*
*custos:BB-	*	*	*	*	*
4C/	.	.	.	.	.
*Xcol	*	*	*	*	*
!LO:LB:g=original	!	!	!	!	!
=15-	=15-	=15-	=15-	=15-	=15-
2BB-y/	-a	.	.	1B-	.
4AA/	.	2G/	.	.	.
4GG/	.	.	.	.	.
*	*	*	*	*Xlig	*
*	*	*	*	*lig	*
2.AA/	Vir-	2C/	-go	1c	.
.	.	2.c\	Vir-	.	.
4BB-/	.	.	.	.	.
=16-	=16-	=16-	=16-	=16-	=16-
2C/	.	.	.	1G	.
.	.	8B-\L	.	.	.
.	.	8A\J	.	.	.
2C/	-go	4G/	.	.	.
.	.	4A/	.	.	.
*	*	*	*	*Xlig	*
2.D/	Cun-	4B-\	.	1F,	.
.	.	4F/	.	.	.
.	.	1B-\	.	.	.
4Eny\	.	.	.	.	.
=17-	=17-	=17-	=17-	=17-	=17-
2F\	.	.	.	1F	Cun-
2FF/	-ctas	2A/	.	.	.
*	*	*	*	*custos:A	*
2BB-,/	.	2B-\	-go	1F	-ctas
2D/	hae-	2.A/	Cun-	.	.
!	!	!	!	!LO:LB:g=original	!
=18-	=18-	=18-	=18-	=18-	=18-
*	*	*	*	*lig	*
2.D/	-re-	.	.	1A	hae-
.	.	4G/	.	.	.
.	.	4F/	.	.	.
*	*	*custos:D	*	*	*
4C/	-ses	4E/	.	.	.
!	!	!LO:LB:g=original	!	!	!
4BB-/	.	2D/	-ctas	1B-	.
4AA/	.	.	.	.	.
2GG/	.	1d\	.	.	.
*	*	*	*	*Xlig	*
=19-	=19-	=19-	=19-	=19-	=19-
2.C/	So-	.	.	1G	-re-
.	.	1c	hae-	.	.
*custos:E	*	*	*	*	*
4D/	.	.	.	.	.
!LO:LB:g=original	!	!	!	!	!
4E\	.	.	.	1G,	-ses
4F\	.	.	.	.	.
!	!	!LO:TX:t=P:problem=# above	!	!	!
!	!	!LO:N:acc=#	!	!	!
2G\	.	2Bn\	-re-	.	.
=20-	=20-	=20-	=20-	=20-	=20-
*	*	*	*	*lig	*
2C/	-la	2.c\	.	1G	So-
2C/	-in-	.	.	.	.
.	.	4B-y\	.	.	.
2D/	-te-	2A/	-ses	1F	.
2D/	-re-	2d\	So-	.	.
*	*	*	*	*Xlig	*
=21-	=21-	=21-	=21-	=21-	=21-
2E-X\	-mi-	2B-\	-la	1G	.
2C/	.	2c\	in-	.	.
*	*	*	*	*lig	*
1BB-	-ſti	2d\	-te-	1B-	.
*	*	*lig	*	*	*
.	.	1B-\	-re-	.	.
=22-	=22-	=22-	=22-	=22-	=22-
1F,	.	.	.	1c	.
*	*	*col	*	*	*
.	.	2.A\	.	.	.
*	*	*Xlig	*	*Xlig	*
*	*	*	*	*lig	*
1G	So-	.	.	1B-	-la
.	.	4G/	.	.	.
*	*	*Xcol	*	*	*
.	.	1G/	-mi-	.	.
=23-	=23-	=23-	=23-	=23-	=23-
1D	-la	.	.	1A	.
.	.	2F#X/	.	.	.
*lig	*	*	*	*Xlig	*
*	*	*	*	*lig	*
1G	in-	2G,/	-ſti	1B-	.
*	*	*custos:A	*	*	*
.	.	1B-\	So-	.	.
!	!	!LO:PB:g=original	!	!	!
=24-	=24-	=24-	=24-	=24-	=24-
!	!	!LO:TX:t=P:problem=usunięta nuta	!	!	!
1F	.	.	.	1c	.
.	.	4A/	.	.	.
.	.	4G/	.	.	.
*Xlig	*	*	*	*Xlig	*
2.BB-/	-te-	2Fny/	.	1B-,	.
.	.	2B-\	.	.	.
4C/	.	.	.	.	.
=25-	=25-	=25-	=25-	=25-	=25-
*	*	*	*	*lig	*
4D/	.	1A	.	1F	in-
4Eny\	.	.	.	.	.
1F	-re-	.	.	.	.
.	.	2G/	la	1G	.
*custos:F	*	*	*	*	*
2E\	-mi-	1c\	in-	.	.
!LO:LB:g=original	!	!	!	!	!
*	*	*	*	*Xlig	*
=26-	=26-	=26-	=26-	=26-	=26-
*	*	*	*	*lig	*
2F\	-ſti	.	.	1F	-te-
1BB-	in-	2d\	-te-	.	.
*	*	*	*	*custos:A	*
.	.	4D/	-re-	1B-	.
.	.	8E/L	.	.	.
.	.	8F/J	.	.	.
2GG/	-te-	1G/	.	.	.
*	*	*	*	*Xlig	*
!	!	!	!	!LO:LB:g=original	!
=27-	=27-	=27-	=27-	=27-	=27-
*lig	*	*	*	*lig	*
1D	-re-	.	.	1A	-re-
!	!	!LO:TX:t=P:problem=# below	!	!	!
.	.	2F#X/	-mi-	.	.
*col	*	*	*	*	*
2.G\	-mi-	2G,/	-sti	1B-	.
.	.	1B-\	So-	.	.
*Xlig	*	*	*	*Xlig	*
4F\	.	.	.	.	.
*Xcol	*	*	*	*	*
=28-	=28-	=28-	=28-	=28-	=28-
*	*	*	*	*lig	*
2E\	.	.	.	1c	.
2F\	-ſti	4A/	.	.	.
.	.	4G/	.	.	.
*	*ij	*	*	*	*
2BB-/	in-	2Fny/	.	1B-	.
2.GG/	-te-	1G/	-la	.	.
*	*	*	*	*Xlig	*
=29-	=29-	=29-	=29-	=29-	=29-
*	*	*	*	*lig	*
.	.	.	.	1B-	-mi-
4AA/	.	.	.	.	.
4BB-/	.	2.d\	in-	.	.
4C/	.	.	.	.	.
1D	-re-	.	.	1A	.
.	.	8c\L	.	.	.
*	*	*custos:A	*	*	*
.	.	8B-\J	.	.	.
!	!	!LO:LB:g=original	!	!	!
.	.	2A/	.	.	.
*	*	*	*	*Xlig	*
=30-	=30-	=30-	=30-	=30-	=30-
*	*	*lig	*	*	*
2GG/	-mi-	1B-	-te-	1G	.
2GG/	-ſti	.	.	.	.
*	*	*col	*	*lig	*
1C	in-	2.c\	.	1G	-ſti
*	*	*Xlig	*	*	*
.	.	4B-\	.	.	.
*	*	*Xcol	*	*	*
=31-	=31-	=31-	=31-	=31-	=31-
1FF	-te-	4A/	.	1A	.
.	.	4G/	.	.	.
.	.	1F	-re-	.	.
*	*	*	*	*Xlig	*
*	*	*	*	*lig	*
1BB-	-re-	.	.	1B-	.
.	.	4E/	.	.	.
.	.	4D/	.	.	.
=32-	=32-	=32-	=32-	=32-	=32-
1GG	.	2D/	.	00Gl;;	.
.	.	2d\	.	.	.
1C	-mi-	1.c	-mi-	.	.
*	*	*	*	*Xlig	*
=33-	=33-	=33-	=33-	=33-	=33-
!LO:TX:t=P:problem=fermaty bez kropek	!	!	!	!	!
0GGl;;	-ſti	.	.	.	.
*	*Xij	*	*	*	*
!	!	!LO:TX:t=P:problem=# below	!	!	!
!	!	!LO:N:acc=#	!	!	!
.	.	4Bn\	.	.	.
.	.	4A\	.	.	.
!	!	!LO:TX:t=P:problem=fermaty bez kropek	!	!	!
.	.	1Bl;;	-ſti	.	.
!LO:LB:g=original	!	!	!	!	!
=34||	=34||	=34||	=34||	=34||	=34||
4GG/	Quae	2r	.	1G,	Quae
4AA/	.	.	.	.	.
4BB-/	.	2.d\	Quae	.	.
4C/	.	.	.	.	.
1D	Ga-	.	.	1F	Ga-
.	.	8c\L	.	.	.
.	.	8B-y\J	.	.	.
.	.	4A/	.	.	.
.	.	4B-\	.	.	.
=35-	=35-	=35-	=35-	=35-	=35-
2C/	-bri-	2c\	.	1G	-bri-
2.E-X\	-e-	4B-\	.	.	.
*	*	*custos:G	*	*	*
.	.	4A/	.	.	.
!	!	!LO:LB:g=original	!	!	!
*	*	*	*	*lig	*
.	.	4G/	.	1B-	-e-
4F\	.	4A/	.	.	.
2G\	.	1B-\	.	.	.
=36-	=36-	=36-	=36-	=36-	=36-
*lig	*	*	*	*	*
*	*	*	*	*custos:B-	*
1F	.	.	.	1c	.
.	.	2A/	.	.	.
*	*	*	*	*Xlig	*
!	!	!	!	!LO:PB:g=original	!
*	*	*	*	*lig	*
1BB-	.	2B-\	Ga-	1B-	.
.	.	2d\	-bri-	.	.
*Xlig	*	*	*	*	*
=37-	=37-	=37-	=37-	=37-	=37-
2C/	-lis	1c	-e-	1G	.
2E-X\	quae	.	.	.	.
*	*	*	*	*Xlig	*
*	*	*	*	*lig	*
2.D/	Ga-	1d	-lis	1A	.
4C/	.	.	.	.	.
=38-	=38-	=38-	=38-	=38-	=38-
2BB-/	.	2r	.	1B-	.
2GG/	-bri-	2.d\	quae	.	.
*	*	*	*	*Xlig	*
*	*	*	*	*lig	*
1D	-e-	.	.	1A	.
.	.	8c\L	.	.	.
.	.	8B-\J	.	.	.
.	.	2A/	.	.	.
=39-	=39-	=39-	=39-	=39-	=39-
2GG/	-lis	2.B-\	Ga-	1G	.
*custos:G	*	*	*	*	*
2G\	quae	.	.	.	.
.	.	4c\	.	.	.
!LO:PB:g=original	!	!	!	!	!
*lig	*	*	*	*Xlig	*
*	*	*	*	*lig	*
1G	Ga-	2d\	.	1B-	.
.	.	1B-\	-bri-	.	.
=40-	=40-	=40-	=40-	=40-	=40-
1F	-bri-	.	.	1c	.
.	.	2A/	-e-	.	.
*Xlig	*	*	*	*Xlig	*
*	*	*	*	*lig	*
1G	-e-	2B-\	-lis	1B-	.
.	.	1d\	.	.	.
=41-	=41-	=41-	=41-	=41-	=41-
2D/	-lis	.	.	1A	.
*	*	*custos:F	*	*	*
1F	.	2c\	.	.	.
!	!	!LO:LB:g=original	!	!	!
*	*	*	*	*Xlig	*
*	*ij	*	*	*lig	*
.	.	2F/	quae	1c	.
2Eny\	Ga-	2G/	.	.	.
=42-	=42-	=42-	=42-	=42-	=42-
2D/	.	2A/	Ga-	1d	.
2BB-/	-bri	2B-\	-bri-	.	.
*	*	*	*	*Xlig	*
*	*	*	*	*lig	*
1C	-e-	1G	-e-	1c	.
=43-	=43-	=43-	=43-	=43-	=43-
1FF,	-lis	2A/	.	1A	.
.	.	1F	.	.	.
*	*Xij	*	*	*Xlig	*
*	*	*	*	*lig	*
1BB-	Quae	.	.	1B-	.
.	.	2B-\	.	.	.
=44-	=44-	=44-	=44-	=44-	=44-
2F\	Ga-	2A/	.	1c	.
2C/	-bri-	1G	.	.	.
*	*	*	*	*Xlig	*
*	*	*	*	*lig	*
2.D/	-e-	.	.	1A	.
.	.	4F/	.	.	.
4C/	.	4E/	.	.	.
=45-	=45-	=45-	=45-	=45-	=45-
2BB-/	.	2F/	.	1B-	.
2GG/	.	2G/	.	.	.
*	*	*	*	*Xlig	*
2C/	.	2E/	.	1G	.
4BB-/	.	4D/	.	.	.
*custos:BB-	*	*	*	*	*
4AA/	.	4C/	.	.	.
!LO:LB:g=original	!	!	!	!	!
=46-	=46-	=46-	=46-	=46-	=46-
*	*	*	*	*custos:B-	*
2BB-/	.	2D/	-lis	1G,	-lis
2C/	.	2G/	Ar-	.	.
!	!	!	!	!LO:LB:g=original	!
2GG/	-lis	4G/	-chan-	1B-	Ar-
.	.	4A/	.	.	.
2.G\	Ar-	4B-\	.	.	.
*	*	*custos:d	*	*	*
.	.	4c\	.	.	.
!	!	!LO:LB:g=original	!	!	!
=47-	=47-	=47-	=47-	=47-	=47-
*	*	*	*	*lig	*
.	.	2d\	.	1B-	-chan-
4F\	.	.	.	.	.
2E-X\	-chan-	2G/	-ge-	.	.
4D/	.	2A/	-li	1d	.
4C/	.	.	.	.	.
4BB-/	.	1B-\	Ar-	.	.
4C/	.	.	.	.	.
*	*	*	*	*Xlig	*
=48-	=48-	=48-	=48-	=48-	=48-
*	*	*	*	*lig	*
4D/	.	.	.	1f	.
4Eny\	.	.	.	.	.
1F	-ge-	4A/	.	.	.
.	.	4G/	.	.	.
.	.	2A/	.	1c	.
2C/	-li	2G/	.	.	.
*	*	*	*	*Xlig	*
=49-	=49-	=49-	=49-	=49-	=49-
2.FF/	Ar-	1.F	.	1A	.
4GG/	.	.	.	.	.
*	*	*	*	*lig	*
4AA/	.	.	.	1c	.
4BB-/	.	.	.	.	.
2C/	.	2E/	-chan-	.	.
=50-	=50-	=50-	=50-	=50-	=50-
2BB-/	.	2F/	-ge-	1d	.
2.GG/	-chan-	1G	.	.	.
*	*	*	*	*Xlig	*
*	*	*	*	*lig	*
.	.	.	.	1B-	.
4AA/	.	.	.	.	.
4BB-/	.	2d,\	-li	.	.
*custos:C	*	*	*	*	*
4GG/	.	.	.	.	.
!LO:LB:g=original	!	!	!	!	!
=51-	=51-	=51-	=51-	=51-	=51-
2C/	.	2c\	Ar-	1G	.
*lig	*	*	*	*	*
1E-X	.	2.B-\	-chan-	.	.
*	*	*	*	*Xlig	*
*	*	*	*	*lig	*
.	.	.	.	1B-	.
.	.	4c\	.	.	.
1B-\	.	4d\	.	.	.
.	.	4B-\	.	.	.
*Xlig	*	*	*	*	*
=52-	=52-	=52-	=52-	=52-	=52-
.	.	4c\	.	1F	.
.	.	4d\	.	.	.
2A\	.	2.c\	.	.	.
*	*	*	*	*Xlig	*
*	*	*	*	*lig	*
1G	.	.	.	1B-	.
.	.	4B-\	.	.	.
.	.	1B-\	-ge-	.	.
=53-	=53-	=53-	=53-	=53-	=53-
1F	.	.	.	1c	.
.	.	4A/	.	.	.
*	*	*custos:F	*	*	*
.	.	4G/	.	.	.
!	!	!LO:LB:g=orfiginal	!	!	!
*	*	*	*	*Xlig	*
*	*	*	*	*lig	*
1BB-	-ge-	2F/	-li	1d	.
.	.	1B-\	Ar-	.	.
=54-	=54-	=54-	=54-	=54-	=54-
1F	-li	.	.	1c	.
.	.	2A/	.	.	.
*	*	*	*	*Xlig	*
*	*	*	*	*lig	*
2BB-/	Ar-	2.B-\	-chan-	1d	.
2.GG/	-chan-	.	.	.	.
.	.	4A/	.	.	.
=55-	=55-	=55-	=55-	=55-	=55-
.	.	2G/	.	1B-	.
4AA/	.	.	.	.	.
2.BB-/	.	2F/	.	.	.
*	*	*	*	*Xlig	*
*	*	*	*	*lig	*
.	.	2B-\	.	1d	.
4C/	.	.	.	.	.
2.D/	.	4A/	.	.	.
.	.	4G/	.	.	.
=56-	=56-	=56-	=56-	=56-	=56-
*	*	*	*	*custos:c	*
.	.	2.A/	.	1f	.
4Eny\	.	.	.	.	.
2.F\	.	.	.	.	.
.	.	4G/	.	.	.
*	*	*	*	*Xlig	*
!	!	!	!	!LO:LB:g=original	!
*	*	*	*	*lig	*
.	.	2F/	.	1c	.
8E\L	.	.	.	.	.
8D\J	.	.	.	.	.
4C/	.	1G/	.	.	.
4D/	.	.	.	.	.
=57-	=57-	=57-	=57-	=57-	=57-
*custos:BB-	*	*	*	*	*
2E-X\	.	.	.	1B-	.
!LO:LB:g=original	!	!	!	!	!
2BB-/	.	1F	-ge-	.	.
*	*	*	*	*Xlig	*
2.C/	.	.	.	1G	.
.	.	2E/	-li	.	.
4BB-/	.	.	.	.	.
=58-	=58-	=58-	=58-	=58-	=58-
*	*	*	*	*lig	*
2AA/	.	1A,	Ar-	1c	.
4GG/	.	.	.	.	.
4FF/	.	.	.	.	.
2.GG/	.	4G/	-chan-	1B-	.
.	.	4A/	.	.	.
.	.	4B-\	.	.	.
*	*	*custos:d	*	*	*
4AA/	.	4c\	.	.	.
!	!	!LO:PB:g=original	!	!	!
*	*	*	*	*Xlig	*
=59-	=59-	=59-	=59-	=59-	=59-
*	*	*	*	*lig	*
2BB-/	.	2d\	.	1G	.
*	*	*lig	*	*	*
2C/	.	1c	.	.	.
2AA/	.	.	.	1F	-ge-
1BB-/	.	1B-\	.	.	.
*	*	*Xlig	*	*Xlig	*
=60-	=60-	=60-	=60-	=60-	=60-
.	.	.	.	1F,	-li
2AA/	-ge-	2c\	-ge-	.	.
*	*	*	*	*lig	*
1GG	-li	1.d	-li	1B-	di-
=61-	=61-	=61-	=61-	=61-	=61-
2.D/	di-	.	.	1A	.
.	.	2A/	di-	.	.
4C/	.	.	.	.	.
*	*	*	*	*Xlig	*
4D/	.	2B-\	-ctis	1F,	-ctis
4Eny\	.	.	.	.	.
2.F\	.	2.A/	di-	.	.
=62-	=62-	=62-	=62-	=62-	=62-
*	*	*	*	*lig	*
.	.	.	.	1A	cre-
4E\	.	4G/	.	.	.
4D/	.	4F/	.	.	.
*custos:BB-	*	*	*	*	*
4C/	.	4E/	.	.	.
!LO:LB:g=original	!	!	!	!	!
2BB-/	.	2F/	.	1B-	.
2GG/	.	2G/	-ctis	.	.
*	*	*	*	*Xlig	*
=63-	=63-	=63-	=63-	=63-	=63-
2AA/	.	2E/	cre-	1c	.
2FF/	-ctis	2F/	-di-	.	.
2.GG/	cre-	2D/	-di-	1B-	-di-
.	.	2G/	-ſti	.	.
4AA/	.	.	.	.	.
=64-	=64-	=64-	=64-	=64-	=64-
*	*	*	*ij	*lig	*
2.BB-/	.	4F/	cre-	1B-	-di-
.	.	4D/	.	.	.
.	.	1G	-di-	.	.
4C/	-di-	.	.	.	.
1D	-di-	.	.	1A	.
*	*	*custos:G	*	*	*
!	!	!LO:TX:t=P:problem=# below	!	!	!
.	.	2F#X/	-di-	.	.
*	*	*	*	*Xlig	*
!	!	!LO:LB:g=original	!	!	!
=65-	=65-	=65-	=65-	=65-	=65-
2GG/	-ſti	2G/	-ſti	1G	.
2G\	Cre-	2B-\	cre-	.	.
*	*	*	*	*lig	*
1C	-di-	0c	-di-	1G	-ſti
=66-	=66-	=66-	=66-	=66-	=66-
1F	-di-	.	.	1A	.
*	*	*	*	*Xlig	*
*	*	*	*	*lig	*
2BB-/	sti	1d	-di-	1B-	.
*	*ij	*	*	*	*
2BB-/	Cre-	.	.	.	.
=67-	=67-	=67-	=67-	=67-	=67-
!	!	!	!	!LO:TX:t=P:problem=dolna fermata bez kropki	!
1C;>	-di-	1c	-ſti	00Gl;;	.
1GG	.	2B-\	cre-	.	.
.	.	2G/	-di-	.	.
*	*	*	*	*Xlig	*
=68-	=68-	=68-	=68-	=68-	=68-
1C	-di-	1c	-di-	.	.
!	!	!LO:TX:t=P:problem=fermaty bez kropek	!	!	!
!	!	!LO:TX:t=P:problem=# below	!	!	!
!LO:TX:t=P:problem=fermaty bez kropek	!	!LO:N:acc=#	!	!	!
1GGl;;	-sti	1Bnl;;	-ſti	.	.
*	*Xij	*	*Xij	*	*
!LO:LB:g=original	!	!	!	!LO:LB:g=original	!
=69||	=69||	=69||	=69||	=69||	=69||
2D/	Dum	2Fny/	Dum	1B-	Dum
1E-X	Vir-	1G	Vir-	.	.
.	.	.	.	1c	.
2F\	.	2A/	.	.	.
=70-	=70-	=70-	=70-	=70-	=70-
*	*	*	*	*lig	*
4BB-/	.	2B-y\	.	1d	Vir-
4C/	.	.	.	.	.
4D/	.	4A/	.	.	.
4Eny\	.	4G/	.	.	.
2.F\	.	2.A/	.	1c	.
*	*	*custos:A	*	*	*
4E\	.	4G/	.	.	.
!	!	!LO:LB:g=original	!	!	!
*	*	*	*	*Xlig	*
=71-	=71-	=71-	=71-	=71-	=71-
2F\	.	4A/	.	1c	-go
.	.	4B-\	.	.	.
2A\	.	1c	.	.	.
*	*	*	*	*lig	*
2.G\	.	.	.	1d	.
!	!	!LO:TX:t=P:problem=# below	!	!	!
!	!	!LO:N:acc=#	!	!	!
.	.	2Bn\	.	.	.
4F\	.	.	.	.	.
=72-	=72-	=72-	=72-	=72-	=72-
!	!	!LO:TX:t=P:problem=# above	!	!	!
2E\	.	4c#\	.	1c	.
.	.	4Bny\	.	.	.
2F\	.	4A/	.	.	.
.	.	4G/	.	.	.
*	*	*	*	*Xlig	*
*	*	*	*	*lig	*
2D/	.	4A/	.	1d	.
.	.	4F/	.	.	.
*custos:D	*	*	*	*	*
2BB-/	-go	1B-y\	.	.	.
!LO:PB:g=original	!	!	!	!	!
=73-	=73-	=73-	=73-	=73-	=73-
2D/	dum	.	.	1f	.
2.F\	Vir-	2.A/	.	.	.
*	*	*	*	*Xlig	*
*	*	*	*	*lig	*
.	.	.	.	1c	.
8E\L	.	8G/L	.	.	.
8D\J	.	8F/J	.	.	.
4C/	.	2.G/	.	.	.
4D/	.	.	.	.	.
=74-	=74-	=74-	=74-	=74-	=74-
2E-X\	.	.	.	1B-	.
.	.	4A/	.	.	.
2.BB-/	.	2.B-\	.	.	.
*	*	*	*	*Xlig	*
*	*	*	*	*lig	*
.	.	.	.	1d	.
4C/	.	8A/L	.	.	.
.	.	8G/J	.	.	.
4D/	.	4F/	.	.	.
4Eny\	.	4G/	.	.	.
=75-	=75-	=75-	=75-	=75-	=75-
2F\	.	4A/	.	1c	.
.	.	4B-\	.	.	.
2A\	.	1cny	.	.	.
*	*	*	*	*Xlig	*
*	*	*	*	*lig	*
1G	.	.	.	1d	.
*	*	*custos:c	*	*	*
!	!	!LO:TX:t=P:problem=# above	!	!	!
!	!	!LO:N:acc=#	!	!	!
.	.	2Bn\	.	.	.
!	!	!LO:LB:g=original	!	!	!
=76-	=76-	=76-	=76-	=76-	=76-
4C/	.	2c\	.	1c	.
4D/	.	.	.	.	.
4E\	.	1G	-go	.	.
4F\	.	.	.	.	.
*	*	*	*	*Xlig	*
4G\	.	.	.	1B-	.
4A\	.	.	.	.	.
1B-\	.	2.d\	du(m)	.	.
=77-	=77-	=77-	=77-	=77-	=77-
*	*	*	*	*lig	*
.	.	.	.	1d	.
.	.	4c\	Vir-	.	.
*custos:F	*	*	*	*	*
2BB-/	.	2B-y\	.	.	.
!LO:LB:g=original	!	!	!	!	!
2F\	.	2A/	.	1c	.
2C/	.	1c\	.	.	.
*	*	*	*	*Xlig	*
=78-	=78-	=78-	=78-	=78-	=78-
*	*	*	*	*lig	*
1G	.	.	.	1d	.
!	!	!LO:TX:t=P:problem=# below	!	!	!
!	!	!LO:N:acc=#	!	!	!
.	.	2Bn\	.	.	.
*	*	*	*	*custos:G	*
2C/	-go	2c\	.	1c	.
2.C/	De-	2G/	-go	.	.
*	*	*	*	*Xlig	*
!	!	!	!	!LO:LB:g=original	!
=79-	=79-	=79-	=79-	=79-	=79-
.	.	2c\	De-	1G,	.
4D/	.	.	.	.	.
2.E-X\	.	4B-y\	.	.	.
.	.	4A/	.	.	.
*	*	*	*	*lig	*
.	.	2G/	-um	1B-	De-
8D/L	.	.	.	.	.
8C/J	.	.	.	.	.
!	!	!LO:TX:t=P:problem=znak "+" nad 1d	!	!	!
4BB-/	.	1d\	et	.	.
4C/	.	.	.	.	.
=80-	=80-	=80-	=80-	=80-	=80-
4D/	.	.	.	1A	.
4Eny\	.	.	.	.	.
1F	.	4c\	.	.	.
.	.	4B-\	.	.	.
*	*	*	*	*Xlig	*
*	*	*	*	*lig	*
.	.	0c	ho-	1G	-um
2E\	.	.	.	.	.
=81-	=81-	=81-	=81-	=81-	=81-
2F\	-um	.	.	1F,	.
2A\	et	.	.	.	.
*	*	*	*	*Xlig	*
2.G\	ho-	4d\	.	1B-	et
.	.	4c\	.	.	.
.	.	4B-\	.	.	.
*	*	*custos:G	*	*	*
4F\	.	4A/	.	.	.
!	!	!LO:LB:g=original	!	!	!
=82-	=82-	=82-	=82-	=82-	=82-
*	*	*	*	*lig	*
2E-X\	.	4G/	.	1B-	ho-
.	.	4A/	.	.	.
*custos:C	*	*	*	*	*
2D/	.	1B-	.	.	.
!LO:LB:g=original	!	!	!	!	!
2C/	.	.	.	1c	.
2C/	.	2A/	-mi-	.	.
*	*	*	*	*Xlig	*
=83-	=83-	=83-	=83-	=83-	=83-
2.BB-/	.	1B-	-nem	1d	.
4C/	-mi-	.	.	.	.
*	*	*	*	*lig	*
2D/	-nem	2.F/	De-	1d	-mi-
2BB-/	De-	.	.	.	.
.	.	4G/	.	.	.
=84-	=84-	=84-	=84-	=84-	=84-
2F\	-um	1.A	.	1c	.
2FF/	et	.	.	.	.
*	*	*	*	*Xlig	*
*	*	*	*	*lig	*
4GG/	ho-	.	.	1B-	.
4AA/	.	.	.	.	.
4BB-/	.	1G/	.	.	.
4C/	.	.	.	.	.
=85-	=85-	=85-	=85-	=85-	=85-
*lig	*	*	*	*	*
1D	.	.	.	1A	.
.	.	2F/	-um	.	.
*	*	*	*	*Xlig	*
*	*	*	*	*lig	*
1Eny	.	2B-\	et	1G	.
.	.	2c\	ho-	.	.
*Xlig	*	*	*	*	*
=86-	=86-	=86-	=86-	=86-	=86-
2.D/	.	1d	-mi-	1A	.
4D/	-mi-	.	.	.	.
*	*	*	*	*Xlig	*
*	*	*	*	*lig	*
2GG/	-nem	2.d\	-nem	1B-	-nem
4GG/	ge-	.	.	.	.
4AA/	.	4c\	ge-	.	.
=87-	=87-	=87-	=87-	=87-	=87-
4BB-/	.	2B-\	.	1G,	.
4GG/	.	.	.	.	.
1C	.	2c\	-nu-	.	.
*	*	*	*	*Xlig	*
.	.	2d\	-i-	1G	ge-
*custos:AA	*	*custos:A	*	*	*
2BB-/	-nu-	2D/	.	.	.
!LO:LB:g=original	!	!LO:LB:g=original	!	!	!
=88-	=88-	=88-	=88-	=88-	=88-
*	*	*	*	*custos:d	*
2AA/	-i-	1A	-ſti	1c	-nu-
2FF/	-ſti	.	.	.	.
!	!	!	!	!LO:LB:g=original	!
*	*	*	*	*lig	*
4BB-/	ge-	2.F/	ge-	1d	-i-
4C/	.	.	.	.	.
4D/	.	.	.	.	.
4E\	.	4G/	.	.	.
=89-	=89-	=89-	=89-	=89-	=89-
4F\	.	4A/	.	1c	.
8E\L	.	4F/	.	.	.
8D\J	.	.	.	.	.
2.C/	.	4G/	.	.	.
.	.	8A/L	.	.	.
.	.	8B-/J	.	.	.
*	*	*	*	*Xlig	*
.	.	2c\	.	1G	.
4D/	.	.	.	.	.
1E-X\	.	4B-\	.	.	.
.	.	4A/	.	.	.
=90-	=90-	=90-	=90-	=90-	=90-
*	*	*	*	*lig	*
.	.	2G/	.	1B-	.
2BB-/	.	2d\	nu-	.	.
2C/	nu-	2e-y\	-i-	1A	.
2D/	-i-	4d\	.	.	.
.	.	4c\	.	.	.
*	*	*	*	*Xlig	*
=91-	=91-	=91-	=91-	=91-	=91-
2GG/	-ſti	4B-\	.	1G	.
.	.	4A/	.	.	.
*	*ij	*	*	*	*
2.G\	ge-	2.B-\	.	.	.
*	*	*	*	*lig	*
.	.	.	.	1d	.
8F\L	.	8A/L	.	.	.
8Eny\J	.	8G/J	.	.	.
4D/	-nu-	4F/	.	.	.
*	*	*custos:A	*	*	*
4E\	.	4G/	.	.	.
!	!	!LO:PB:g=original	!	!	!
=92-	=92-	=92-	=92-	=92-	=92-
2F\	-i-	4A/	.	1c	.
.	.	4B-\	.	.	.
*custos:GG	*	*	*	*	*
2FF/	-ſti	2A/	.	.	.
!LO:LB:g=original	!	!	!	!	!
*	*Xij	*	*	*	*
*lig	*	*	*	*Xlig	*
*	*	*	*	*lig	*
1GG	ge-	2G/	.	1B-	.
.	.	2d\	.	.	.
=93-	=93-	=93-	=93-	=93-	=93-
*col	*	*	*	*	*
2.AA/	.	0c	-ſti	1A	.
*Xlig	*	*	*	*Xlig	*
4BB-/	-nu-	.	.	.	.
*Xcol	*	*	*	*	*
0C	-i-	.	.	1G	.
=94-	=94-	=94-	=94-	=94-	=94-
*	*	*	*	*lig	*
.	.	2.c\	ge-	1G	-ſti
.	.	4B-\	.	.	.
1FF	-sti	4A/	.	1F	.
.	.	4G/	.	.	.
.	.	4A/	.	.	.
.	.	4B-\	.	.	.
*	*	*	*	*Xlig	*
=95-	=95-	=95-	=95-	=95-	=95-
*	*ij	*	*	*lig	*
2.F\	ge-	0c	.	1A	.
4E\	.	.	.	.	.
2C/	.	.	.	1G	.
2E-X\	-nu-	.	.	.	.
*	*	*	*	*Xlig	*
=96-	=96-	=96-	=96-	=96-	=96-
*	*	*	*	*lig	*
2D/	.	2d\	-nu-	1A	.
2D/	-i-	2.d\	-i-	.	.
1G	.	.	.	1B-	.
.	.	4c\	.	.	.
.	.	2B-\	.	.	.
*	*	*	*	*Xlig	*
=97-	=97-	=97-	=97-	=97-	=97-
*	*	*	*	*lig	*
2F,\	-sti	2A/	.	1c	.
*	*Xij	*	*	*	*
*	*	*custos:c	*	*	*
1C	et	2G/	.	.	.
!	!	!LO:LB:g=original	!	!	!
.	.	2c\	-ſti	1G	.
2C/	post	2.c\	ge-	.	.
*	*	*	*	*Xlig	*
=98-	=98-	=98-	=98-	=98-	=98-
*	*	*	*	*custos:F	*
2.D/	par-	.	.	1F,	.
.	.	4B-\	.	.	.
.	.	1B-	.	.	.
4Eny\	.	.	.	.	.
!	!	!	!	!LO:PB:g=original	!
2F\	.	.	.	1F,	et
*custos:BB-	*	*	*	*	*
2FF/	.	2A/	-nu-	.	.
!LO:LB:g=original	!	!	!	!	!
=99-	=99-	=99-	=99-	=99-	=99-
2BB-/	-tum	2B-\	.	1F,	post
1D	Vir-	4A/	-i-	.	.
.	.	4G/	.	.	.
*	*	*	*	*lig	*
.	.	2F/	-ſti	1A	par-
2C/	.	2c\	et	.	.
=100-	=100-	=100-	=100-	=100-	=100-
2BB-/	.	2F/	post	1B-	.
*lig	*	*	*	*	*
1GG	.	4B-\	par-	.	.
.	.	4c\	.	.	.
*	*	*	*	*Xlig	*
.	.	4d\	.	1G,	-tum
.	.	4B-\	.	.	.
1C/	.	1c\	.	.	.
*Xlig	*	*	*	*	*
=101-	=101-	=101-	=101-	=101-	=101-
*	*	*	*	*lig	*
.	.	.	.	1G	Vir-
1BB-	.	2d\	-tum	.	.
.	.	2B-\	Vir-	1F	.
2AA/	.	4c\	.	.	.
.	.	4d\	.	.	.
*	*	*	*	*Xlig	*
=102-	=102-	=102-	=102-	=102-	=102-
*	*	*custos:d	*	*	*
2GG/	-go	2e-X\	.	1G	.
!	!	!LO:LB:g=original	!	!	!
1G	et	2.d\	.	.	.
*	*	*	*	*lig	*
.	.	.	.	1B-	.
.	.	4c\	.	.	.
2G\	post	1B-\	.	.	.
=103-	=103-	=103-	=103-	=103-	=103-
1F	.	.	.	1c	.
.	.	2A/	.	.	.
*	*	*	*	*Xlig	*
*	*	*	*	*lig	*
2.BB-/	par-	2.d\	.	1B-	-go
4C/	.	4eny\	.	.	.
=104-	=104-	=104-	=104-	=104-	=104-
4D/	.	1f	.	1A	.
4E\	.	.	.	.	.
1F	.	.	.	.	.
*	*	*	*	*Xlig	*
*	*	*	*	*lig	*
.	.	2F/	.	1c	.
2E\	.	2G/	.	.	.
=105-	=105-	=105-	=105-	=105-	=105-
2D/	.	4A/	.	1d	.
.	.	4F/	.	.	.
1BB-	-tum	1B-	.	.	.
*	*	*	*	*Xlig	*
*	*	*	*	*lig	*
.	.	.	.	1f	.
1F\	Vir-	4A/	.	.	.
.	.	4G/	.	.	.
=106-	=106-	=106-	=106-	=106-	=106-
.	.	2A/	-go	1c	.
4C/	-go	4G/	.	.	.
*custos:E-	*	*	*	*	*
4D/	.	4F/	.	.	.
!LO:PB:g=original	!	!	!	!	!
*	*	*	*	*Xlig	*
4E-X\	.	4G/	.	1B-,	.
4F\	.	4A/	.	.	.
1G\	in-	4B-\	.	.	.
*	*	*custos:d	*	*	*
.	.	4c\	.	.	.
!	!	!LO:LB:g=original	!	!	!
=107-	=107-	=107-	=107-	=107-	=107-
*	*	*	*	*lig	*
.	.	2d\	.	1B-	in-
2G\	-ui-	2B-\	in-	.	.
*	*	*	*	*custos:B-	*
2F\	-o-	2B-\	-ui-	1c	.
2FF/	-la-	2A/	o-	.	.
*	*	*	*	*Xlig	*
!	!	!	!	!LO:LB:g=original	!
=108-	=108-	=108-	=108-	=108-	=108-
*	*	*	*	*lig	*
4GG/	.	0d	-la-	1B-	-ui-
4AA/	.	.	.	.	.
4BB-/	.	.	.	.	.
4C/	.	.	.	.	.
1D	.	.	.	1A	.
*	*	*	*	*Xlig	*
=109-	=109-	=109-	=109-	=109-	=109-
2GG/	-ta	2B-\	-ta	1G	.
1C	in-	1c	per-	.	.
*	*	*	*	*lig	*
.	.	.	.	1G	-o-
1BB-/	-ui-	2d\	-man-	.	.
=110-	=110-	=110-	=110-	=110-	=110-
.	.	2B-\	.	1F	.
2AA/	-o-	2c\	-ſi-	.	.
*	*	*	*	*Xlig	*
*	*	*	*	*lig	*
2BB-/	-la-	2d\	.	1G	-la-
2C/	.	2G/	-ſti	.	.
=111-	=111-	=111-	=111-	=111-	=111-
2GG/	-ta	1G	in-	1B-	.
2.G\	per-	.	.	.	.
*	*	*	*	*Xlig	*
.	.	2d\	-ui-	1B-,	-ta
4F\	.	.	.	.	.
1E-X\	-man-	1e-X\	-o-	.	.
=112-	=112-	=112-	=112-	=112-	=112-
.	.	.	.	1B-	per-
*custos:F	*	*	*	*	*
2BB-/	.	2d\	-la-	.	.
!LO:LB:g=original	!	!	!	!	!
*lig	*	*	*	*lig	*
1F	-ſi-	2c\	-ta	1A	-man-
*	*	*custos:d	*	*	*
!	!	!LO:TX:t=P:problem=kropka w następnym systemie	!	!	!
.	.	2.d\	per-	.	.
!	!	!LO:LB:g=original	!	!	!
=113-	=113-	=113-	=113-	=113-	=113-
1G	.	.	.	1B-	.
.	.	4c\	-man-	.	.
.	.	1B-	-ſi-	.	.
*Xlig	*	*	*	*Xlig	*
*	*	*	*	*lig	*
1F	.	.	.	1c	.
.	.	4A/	.	.	.
.	.	4G/	.	.	.
=114-	=114-	=114-	=114-	=114-	=114-
2BB-/	-ſti	2F/	.	1B-	.
*	*ij	*	*	*	*
2.GG/	per-	2G/	.	.	.
*	*	*	*	*Xlig	*
*	*	*	*	*lig	*
.	.	2D/	-ſti	1B-	-ſi-
4AA/	.	.	.	.	.
4BB-/	.	1G/	per-	.	.
4C/	.	.	.	.	.
=115-	=115-	=115-	=115-	=115-	=115-
1D	-man-	.	.	1A	.
.	.	2F/	-man-	.	.
*	*	*	*	*Xlig	*
2.GG/	.	4G/	-ſi-	1G	.
.	.	4A/	.	.	.
.	.	4B-\	.	.	.
4AA/	.	4c\	.	.	.
=116-	=116-	=116-	=116-	=116-	=116-
*	*	*	*	*lig	*
2BB-/	.	2d\	.	1G	-ſti
2C/	.	4c\	.	.	.
.	.	4B-\	.	.	.
2FF/	.	1c	.	1A	.
2F\	.	.	.	.	.
*	*	*	*	*Xlig	*
=117-	=117-	=117-	=117-	=117-	=117-
*	*	*	*	*lig	*
1BB-	.	1d	.	1B-	.
1C	-ſi-	1c	-ſti	[1Gl;;	.
*	*	*	*	*Xlig	*
!	!	!	!	!LO:LB:g=original	!
=118-	=118-	=118-	=118-	=118-	=118-
!	!	!LO:N:acc=#	!	!	!
!LO:TX:t=P:problem=fermaty bez kropek	!	!LO:TX:t=P:problem=fermaty bez kropek	!	!	!
0GGl;;	-ſti	0Bnl;;	.	0G]	.
!LO:LB:g=original	!	!LO:LB:g=original	!	!	!
*	*Xij	*	*	*	*
=119||	=119||	=119||	=119||	=119||	=119||
*	*	*	*	*lig	*
1FF	De-	4A/	De-	1F	De-
.	.	4G/	.	.	.
.	.	4A/	.	.	.
.	.	4B-y\	.	.	.
1C	.	1c	.	1G	.
*	*	*	*	*Xlig	*
=120-	=120-	=120-	=120-	=120-	=120-
2C/	-i	2c\	-i	1G,	-i
2.E-X\	ge-	2.B-\	ge-	.	.
*	*	*	*	*lig	*
.	.	.	.	1B-	.
8D/L	.	4c\	.	.	.
8C/J	.	.	.	.	.
4BB-/	.	1d\	.	.	.
4C/	.	.	.	.	.
=121-	=121-	=121-	=121-	=121-	=121-
4D/	.	.	.	1A	.
4Eny\	.	.	.	.	.
2F\	.	2c\	-ni-	.	.
*	*	*	*	*Xlig	*
*	*	*	*	*lig	*
1BB-	.	2d\	-trix	1B-	.
.	.	2.d\	De-	.	.
=122-	=122-	=122-	=122-	=122-	=122-
1C	.	.	.	1G	.
.	.	4c\	.	.	.
.	.	1c	.	.	.
*lig	*	*	*	*Xlig	*
*	*	*	*	*lig	*
1D	.	.	.	1F	.
.	.	2B-\	-i	.	.
=123-	=123-	=123-	=123-	=123-	=123-
*col	*	*lig	*	*	*
2.C/	.	1c	ge-	1G,	.
*Xlig	*	*	*	*Xlig	*
4C/	-ni-	.	.	.	.
*Xcol	*	*col	*	*lig	*
2FF/	-trix	2.A\	.	1F	ge-
2F\	De-	.	.	.	.
*	*	*Xlig	*	*	*
*	*	*custos:c	*	*	*
.	.	4B-\	.	.	.
*	*	*Xcol	*	*	*
!	!	!LO:PB:g=original	!	!	!
=124-	=124-	=124-	=124-	=124-	=124-
1C	-i	1c	.	1G	.
*lig	*	*lig	*	*Xlig	*
*	*	*	*	*lig	*
1G	ge-	1d	.	1B-	.
=125-	=125-	=125-	=125-	=125-	=125-
*col	*	*col	*	*	*
2.C/	.	2.e-X\	.	1c	.
*Xlig	*	*Xlig	*	*Xlig	*
*custos:G	*	*	*	*	*
4C/	-ni-	4e-\	-[ni]-	.	.
*Xcol	*	*Xcol	*	*	*
!LO:LB:g=original	!	!	!	!	!
2.G\	-trix	2d\	-trix	1B-	-ni-
.	.	1G/	in-	.	.
4F\	.	.	.	.	.
=126-	=126-	=126-	=126-	=126-	=126-
2E-X\	.	.	.	1B-,	-trix
1BB-	in-	1F	-ter-	.	.
*	*	*	*	*lig	*
.	.	.	.	1B-	in-
2BB-/	-ter-	1B-\	-ce-	.	.
=127-	=127-	=127-	=127-	=127-	=127-
*lig	*	*	*	*	*
1F	-ce-	.	.	1c	.
.	.	2A/	-de	.	.
*	*	*	*	*Xlig	*
*	*	*	*	*lig	*
1G	.	2G/	.	1B-	-ter-
.	.	1B-\	pro	.	.
*Xlig	*	*	*	*	*
=128-	=128-	=128-	=128-	=128-	=128-
*	*	*	*	*custos:B-	*
1F	.	.	.	1c	.
.	.	2A/	no-	.	.
*	*	*	*	*Xlig	*
!	!	!	!	!LO:LB:g=original	!
*	*	*	*	*lig	*
2.BB-/	-de	2B-\	-bis	1B-	.
.	.	2.d\	in-	.	.
4C/	.	.	.	.	.
=129-	=129-	=129-	=129-	=129-	=129-
4D/	.	.	.	1A	.
4Eny\	.	4c\	-ter-	.	.
1F	.	1c	-ce-	.	.
*	*	*	*	*Xlig	*
*	*	*	*	*lig	*
.	.	.	.	1F	-ce-
!	!	!LO:TX:t=P:problem=# above	!	!	!
!	!	!LO:N:acc=#	!	!	!
2D/	pro	2Bn\	.	.	.
=130-	=130-	=130-	=130-	=130-	=130-
*	*	*lig	*	*	*
1C	no-	1c	.	1G	.
*	*	*col	*	*Xlig	*
*	*	*	*	*lig	*
2GG/	-bis	2.d\	.	1B-	.
2.G\	in-	.	.	.	.
*	*	*Xlig	*	*	*
*	*	*custos:B-	*	*	*
.	.	4c\	.	.	.
*	*	*Xcol	*	*	*
!	!	!LO:LB:g=original	!	!	!
=131-	=131-	=131-	=131-	=131-	=131-
.	.	4B-y\	.	1G	.
4F\	.	4A/	.	.	.
1E-X	.	1G	.	.	.
*	*	*	*	*Xlig	*
.	.	.	.	1B-,	-de
*custos:E-	*	*	*	*	*
2D/	-ter-	2d,\	-de	.	.
!LO:LB:g=original	!	!	!	!	!
=132-	=132-	=132-	=132-	=132-	=132-
2E-X\	-ce-	2G/	pro	1B-	pro
2D/	.	2d\	no-	.	.
*	*	*	*	*lig	*
1C	-de	2G,/	-bis	1c	no-
.	.	2.G/	pro	.	.
=133-	=133-	=133-	=133-	=133-	=133-
1G	pro	.	.	1B-	.
.	.	4A/	.	.	.
.	.	1B-	.	.	.
*	*	*	*	*Xlig	*
*	*	*	*	*lig	*
1F	.	.	.	1c	.
.	.	2A/	no-	.	.
=134-	=134-	=134-	=134-	=134-	=134-
*lig	*	*	*	*	*
1BB-	no-	2B-\	-bis	1B-	.
.	.	2d\	pro	.	.
*	*	*	*	*Xlig	*
*	*	*	*	*lig	*
1C	.	1c	no-	1G	.
*Xlig	*	*	*	*	*
=135-	=135-	=135-	=135-	=135-	=135-
1FF	-bis	2c\	-bis	1A	.
.	.	2.d\	pro	.	.
*	*	*	*	*Xlig	*
2.GG/	in-	.	.	1B-	.
.	.	4c\	.	.	.
.	.	1B-\	.	.	.
4AA/	.	.	.	.	.
=136-	=136-	=136-	=136-	=136-	=136-
*	*	*	*	*lig	*
4BB-/	.	.	.	1d	.
4C/	.	.	.	.	.
4D/	.	4A/	.	.	.
*	*	*custos:A	*	*	*
4Eny\	.	4G/	.	.	.
!	!	!LO:LB:g=original	!	!	!
2F\	.	4A/	.	1c	.
.	.	4B-\	.	.	.
2FF/	-ter-	4c\	.	.	.
.	.	4A/	.	.	.
*	*	*	*	*Xlig	*
=137-	=137-	=137-	=137-	=137-	=137-
*	*	*	*	*lig	*
2BB-/	-ce-	2.B-\	.	1d	.
2.GG/	-de	.	.	.	.
.	.	4A/	.	.	.
*	*	*	*	*custos:A	*
.	.	2G/	.	1B-	.
4AA/	.	.	.	.	.
4BB-/	.	2.d\	no-	.	.
*custos:D	*	*	*	*	*
4C/	.	.	.	.	.
*	*	*	*	*Xlig	*
!LO:LB:g=original	!	!	!	!LO:LB:g=original	!
=138-	=138-	=138-	=138-	=138-	=138-
*	*	*	*	*lig	*
1D	.	.	.	1A	.
.	.	8c\L	.	.	.
.	.	8B-\J	.	.	.
.	.	2A/	.	.	.
2.GG/	pro	4B-\	.	1G	.
.	.	4A/	.	.	.
.	.	4B-\	.	.	.
4AA/	.	4c\	.	.	.
*	*	*	*	*Xlig	*
=139-	=139-	=139-	=139-	=139-	=139-
*	*	*	*	*lig	*
2BB-/	.	2d\	.	1G	-bis.
2C/	.	1c	.	.	.
2AA/	.	.	.	1F	.
2BB-/	no-	2.B-\	.	.	.
*	*	*	*	*Xlig	*
=140-	=140-	=140-	=140-	=140-	=140-
*	*	*	*	*lig	*
1GG,	-bis	.	.	1G	.
.	.	4A/	.	.	.
.	.	4B-\	.	.	.
*	*	*custos:d	*	*	*
.	.	4c\	.	.	.
!	!	!LO:LB:g=original	!	!	!
*lig	*	*	*	*	*
1G	in-	2d\	.	1B-	.
.	.	1B-\	.	.	.
*	*	*	*	*Xlig	*
=141-	=141-	=141-	=141-	=141-	=141-
*	*	*	*	*lig	*
1F	.	.	.	1c	.
.	.	2A/	.	.	.
*Xlig	*	*	*	*	*
1BB-	-ter-	2.B-\	.	1d	.
.	.	4A/	.	.	.
*	*	*	*	*Xlig	*
=142-	=142-	=142-	=142-	=142-	=142-
*	*	*	*	*lig	*
1C	-ce-	2G/	-bis	1c	.
.	.	1A	in-	.	.
1.D	-de	.	.	1A	.
.	.	1F/	-ter-	.	.
*	*	*	*	*Xlig	*
=143-	=143-	=143-	=143-	=143-	=143-
*	*	*	*	*lig	*
.	.	.	.	1B-	.
2.E\	pro	2G/	-ce-	.	.
.	.	2B-\	-de	1G	.
4D/	.	.	.	.	.
2C/	.	2c\	pro	.	.
*	*	*	*	*Xlig	*
=144-	=144-	=144-	=144-	=144-	=144-
*	*	*	*	*lig	*
2BB-/	.	2F/	no-	1B-	.
2GG/	.	2.B-\	.	.	.
*custos:FF	*	*	*	*	*
1BB-	no-	.	.	1d	.
.	.	8A/L	.	.	.
.	.	8G/J	.	.	.
.	.	4F/	.	.	.
.	.	4G/	.	.	.
*	*	*	*	*Xlig	*
!LO:PB:g=original	!	!	!	!	!
=145-	=145-	=145-	=145-	=145-	=145-
*	*	*	*	*lig	*
2FF/	-bis	4A/	.	1c	.
.	.	4G/	.	.	.
2.F\	pro	4A/	.	.	.
*	*	*custos:c	*	*	*
.	.	4B-\	.	.	.
!	!	!LO:LB:g=original	!	!	!
.	.	2c\	.	1A	.
4E\	.	.	.	.	.
4D/	.	1F/	.	.	.
4C/	.	.	.	.	.
*	*	*	*	*Xlig	*
=146-	=146-	=146-	=146-	=146-	=146-
*	*	*	*	*lig	*
2BB-/	.	.	.	1B-	.
2GG/	.	2G/	-bis	.	.
*lig	*	*	*	*	*
*	*	*	*	*custos:G	*
1D	.	4F/	pro	1A	.
.	.	4D/	.	.	.
.	.	1d\	no-	.	.
*	*	*	*	*Xlig	*
!	!	!	!	!LO:LB:g=original	!
=147-	=147-	=147-	=147-	=147-	=147-
*	*	*	*	*lig	*
1E-X	.	.	.	1G	.
.	.	2c\	.	.	.
*Xlig	*	*	*	*	*
1D	[no]-	0d	-bis	1A	.
*	*	*	*	*Xlig	*
=148-	=148-	=148-	=148-	=148-	=148-
2GG,/	-bis	.	.	1B-	.
2GG/	pro	.	.	.	.
!	!	!	!	!LO:TX:a:t=P::problem=po prawej stronie za ostatnią nutą zapisano "Offertorium&colon; Aue Maria Ut Supra fol. 4."	!
1.C	no-	2.c\	pro	[1G;;l	.
.	.	4d\	.	.	.
=149-	=149-	=149-	=149-	=149-	=149-
.	.	2e-X\	.	0G_	.
2BB-/	.	1d	.	.	.
1C	.	.	.	.	.
.	.	1c\	.	.	.
=150-	=150-	=150-	=150-	=150-	=150-
!LO:TX:t=P:problem=górna fermata bez kropki	!	!	!	!	!
0GGl;;	-bis.	.	.	0G]	.
!	!	!LO:TX:t=P:problem=# below	!	!	!
!	!	!LO:N:acc=#	!	!	!
.	.	4Bn\	no-	.	.
.	.	4A/	-bis.	.	.
!	!	!LO:TX:a:t=P:problem=pod pięciolinią zapisano "Offertorium"	!	!	!
!	!	!LO:TX:t=P:problem=fermaty bez kropek	!	!	!
.	.	1Bl;;	.	.	.
==	==	==	==	==	==
*-	*-	*-	*-	*-	*-
!!!system-decoration: [(s1,s2,s3)]
!!!RDF**kern: > = above
!!!RDF**kern: < = below
!!!RDF**kern: l = terminal long
!!!EED: Mateusz Mrugas
!!!EEV: 2021-03-24
!!!ENC: Katarzyna Serwa
!!!END: 2021-03-08
